!!!OTL: IN DEM GOLDNEN STRAHL UEBER BERG UND THAL
!!!ARE: Europa, Mitteleuropa, Deutschland
!!!SCT: B0266
!!!YEM: Copyright 1995, estate of Helmut Schaffrath.
**kern
*ICvox
*Ivox
*M2/4
*k[f#c#g#]
*A:
{16e
16e
=1
8a
16b
16g#
8a
16e
16e
=2
8cc#
16dd
16b
8cc#}
{16cc#
16cc#
=3
16b
16ee
16dd#
16cc#
16b
16a
16g#
16f#
=4
4f#
8e}
{16e
16e
=5
8.dd
16cc#
8b
16e
16e
=6
8.cc#
16b
8a}
{16a
16a
=7
8b
16b
16b
16e
16f#
16g#
16e
=8
8a
8cc#
8a}
==
!!!AGN: Stimmungs - Lied, Natur
!!!ONB: ESAC (Essen Associative Code) Database: BOEHME
!!!AMT: simple duple
!!!AIN: vox
!!!EED: Helmut Schaffrath
!!!EEV: 1.0
*-
